X:11872
T:no name
R:reel
H:See also jig#296
Z:id:hn-reel-612
M:C|
K:D
EF~F2 FEDE|FAAB AFEF|DEFA dBAF|FEED EGFE|
EF~F2 FEDE|F2AB AFEF|DEFA dBAF|EDCE D4:|
|:ef~f2 edce|dF~F2 BFAF|ef~f2 edce|dfab a2ag|
ef~f2 edce|dF~F2 BFAF|DEFA dBAF|EDCE D4:|
"variations"
|:F2FE FEDE|FAdB AF~F2|D2FA dBAF|GEED EFDE|
~F3E FEDE|FAdB AF~F2|D2FA dBAF|GECE D4:|
|:fd~d2 edce|dF~F2 BAAd|fd~d2 edcA|Bdgb a2ag|
fd~d2 edce|dF~F2 BAAF|DEFA dBAF|EDCE D4:|


